!!!OTL: IN DER EICHE DA WOHNET MEIN LIEBCHEN
!!!ARE: Europa, Mitteleuropa, Deutschland, Ost - Friesland
!!!SCT: E0049A
!!!YEM: Copyright 1995, estate of Helmut Schaffrath.
**kern
*ICvox
*Ivox
*M4/4
*k[f#]
*G:
{8g
8a
=1
4b
8b
8b
4b
8a
8b
=2
4cc
4a
4r}
{8a
8b
=3
4cc
8cc
8cc
4cc
8b
8cc
=4
4dd
4b
4r}
{8b
8cc
=5
4dd
8dd
8dd
8cc
8b
8a
8g
=6
4ee
4ee
4ee}
{8gg
8ee
=7
4dd
8b
8b
4dd
8cc
8cc
=8
2.b}
==
!!!AGN: erzaehlendes Volks - Lied, Sage, Mord, Ballade ?
!!!ONB: ESAC (Essen Associative Code) Database: ERK1
!!!AMT: simple quadruple
!!!AIN: vox
!!!EED: Helmut Schaffrath
!!!EEV: 1.0
*-
